icon-themes/sifr_svg/cmd/lc_sortdialog.svg

<svg viewBox="0 0 24 24" xmlns="http://www.w3.org/2000/svg"><path d="m5 2v16.5625l-2.28125-2.28125c-.18817-.18815-.327879-.28125-.71875-.28125h-1v1c.00003.26531.09311.53058.28125.71875l4 4 .28125.28125h.875l.28125-.28125 3.359375-3.359375-.078125-.076172v-2.283203c-.26531-.00004-.53057.09314-.71875.28125l-2.28125 2.28125v-16.5625zm10.5625 0-.28125.28125-4 4c-.18814.18817-.28122.45344-.28125.71875v1h1c.390871 0 .53058-.0931.71875-.28125l2.28125-2.28125v4.5625h2v-4.5625l2.28125 2.28125c.18818.18811.45344.28129.71875.28125h1v-1c0-.262459-.09304-.53057-.28125-.71875l-4-4-.28125-.28125zm.4375 9v1.503906c.628416.471311.998772 1.210576 1 1.996094 0 1.380712-1.119288 2.5-2.5 2.5-.786206-.000614-1.526324-.371035-1.998047-1h-1.501953v1.857422c1.371429 1.321851 2.804414 1.714844 4.115234 1.714844h2.742188l3.427734 3.427734h1.714844v-1.714844l-3.427734-3.427734v-2.742188c0-1.511964-.368607-2.743805-1.714844-4.115234zm-1 9.568359v1.431641h2v-1.427734h-1.884766c-.03776 0-.07719-.003307-.115234-.003907z" fill="#555753"/></svg>

<svg xmlns="http://www.w3.org/2000/svg" viewBox="0 0 24 24">
  <path
     style="fill:#555753"
     d="M 5 2 L 5 18.5625 L 2.71875 16.28125 C 2.53058 16.0931 2.390871 16 2 16 L 1 16 L 1 17 C 1.00003 17.26531 1.09311 17.53058 1.28125 17.71875 L 5.28125 21.71875 L 5.5625 22 L 6.4375 22 L 6.71875 21.71875 L 10.078125 18.359375 L 10 18.283203 L 10 16 C 9.73469 15.99996 9.46943 16.09314 9.28125 16.28125 L 7 18.5625 L 7 2 L 5 2 z M 15.5625 2 L 15.28125 2.28125 L 11.28125 6.28125 C 11.09311 6.46942 11.00003 6.73469 11 7 L 11 8 L 12 8 C 12.390871 8 12.53058 7.9069 12.71875 7.71875 L 15 5.4375 L 15 10 L 17 10 L 17 5.4375 L 19.28125 7.71875 C 19.46943 7.90686 19.73469 8.00004 20 8 L 21 8 L 21 7 C 21 6.737541 20.90696 6.46943 20.71875 6.28125 L 16.71875 2.28125 L 16.4375 2 L 15.5625 2 z M 16 11 L 16 12.503906 C 16.628416 12.975217 16.998772 13.714482 17 14.5 C 17 15.880712 15.880712 17 14.5 17 C 13.713794 16.999386 12.973676 16.628965 12.501953 16 L 11 16 L 11 17.857422 C 12.371429 19.179273 13.804414 19.572266 15.115234 19.572266 L 17.857422 19.572266 L 21.285156 23 L 23 23 L 23 21.285156 L 19.572266 17.857422 L 19.572266 15.115234 C 19.572266 13.60327 19.203659 12.371429 17.857422 11 L 16 11 z M 15 20.568359 L 15 22 L 17 22 L 17 20.572266 L 15.115234 20.572266 C 15.077474 20.572266 15.038044 20.568959 15 20.568359 z "
     />
</svg>
